X:1
T:Piano Sonata No. 1, Op. 10
T:Piano Sonata No. 5 in C-Minor
T:Ludwig van Beethoven
T:Op. 10, No. 1
C:Ludwig van Beethoven
%%score { ( 1 4 7 ) | ( 2 3 5 6 ) }
L:1/8
Q:1/4=150
M:3/4
K:Eb
V:1 treble nm="Piano" snm="Pno."
V:4 treble 
V:7 treble 
V:2 bass 
V:3 bass 
V:5 bass 
V:6 bass 
V:1
|:!f!"^Allegro molto e con brio""^ten." [EGc]3[Q:1/4=180] z/ G<ec/ | g>ec'>g !wedge!e'2 | %2
 !wedge!e'2 z2!p! .[Gc]2 | [Gc]4 .[G=B]2 |[Q:1/4=150]"^ten."!f! [FA=B]3[Q:1/4=180] z/ B<fd/ | %5
 =b>fd'>b !wedge!f'2 | !wedge!f'2 z2!p! .[=Bd]2 | [=Bd]4 c2 |{/ce} g3 f e2 | d4 .c2 | %10
{/Gce} g3 f [ce]2 | [=Bd]4 .c2 |{/Gce} [Gg]3 [Ff] [Ee]2- | [Ee]2 .[Dd]2 !>![Cc]2- | %14
 [Cc]2 .[=B,=B]2 !>![A,A]2- | [A,A]2 .[G,G]2 z2 | z2!pp! (3=B,DF (3AGF | .E2 z2 z2 | %18
 z2 (3F,A,D (3FED | .C2 z2 z2 | z2 (3G,=B,D (3FDB, |!f![Q:1/4=150]"^ten." C3[Q:1/4=180] z/ C<GE/ | %22
 c>Ge>c !wedge![Gg]2 | !wedge![Gg]2 z3/2 =B,<GD/ | =B>Gd>B !wedge![Gg]2 | !wedge![Gg]2 z3/2 E<GE/ | %26
 c>Ge>cg>e |!ff! !wedge!d2 !wedge!f'2 z2 |!ff! !wedge!=B2 !wedge!d'2 z2 | %29
!ff! !wedge!c2 !wedge!c'2 z2 | z6 | z6 | z2 G2 e2 | e4 e2- | e2 f2 _d2- | d2 =B2 c2 | %36
 z2!p! =e2 .c'2 | c'4 c'2- | c'2 _d'2 b2- | b2 g2 a2 | z2!p! c2 a2 |!<(! a4!<)!!mp! a2- | %42
!>(! a2 b2!>)!!p! _g2- |!<(! g2 =e2 f2- | f2 _g2!<)!!mf! _e2- |!>(! e2 e2 =d2- | d2 e2 _G2!>)! | %47
 F2 z2 z2 | z2 .c2 .c2 | (c2 B2) z2 | z2 .A2 .A2 | A2 G2 z2 | z c=Bcdc | z _B=ABcB | z _AGABA | %55
!mp! G6- |!<(! G3 B!mf! e2!<)! |!>(! e6!>)! |!mp! .d2 z2 z2 | B6 |!<(! B/c/B/=A/ B!<)!!mf!f ._a2 | %61
!>(! a6!>)! |!mp! .g2 z2 z2 | .G.A.B!<(!.c.d.e | .f.g.a.b.c'.d'!<)! |!>(! e'6!>)! | %66
!mp! .d'2 z2 z2 | .B,.C.D.E!<(!.F.G | .A.B.c.d.e!mf!.f!<)! | !>!g6 | !>!e'4 .G,2 | A,6 | =A,6 | %73
 B,6 |!>(! T_A,/B,/A,/B,/A,/B,/A,/B,/(3A,/B,/A,/G,/A,/!>)! |!mp! G,!<(!B,EB,EG | BGBegb!<)! | %77
!f! .e'2 z2 E2- | E4!f! G,2 | A,4 E2 |!f! =A,4 E2 |"_cresc." B,EDE!>!=B,E | CEDE!>!=A,E | %83
!ff! _B,E_DE!>!=B,E | CE=DE!>!=A,E | !wedge!B,2 z3/2 E<BG/ | !wedge!e2 z3/2 E<=A^F/ | %87
 !wedge!e2 z3/2 E<BG/ | !wedge!e2 z3/2 c<^fd/ |!ff! g3 .e (e.B) | (B.G)(G.E)(E.B,) | %91
[K:bass] (B,.G,)(G,.E,)(E,.B,,) |!ff! z2 z2 [F,A,B,D]2 |!ff! .[G,B,E]2 z2!p! z2 | %94
 z2[K:treble] .B2 .B2 | c2 B2 z2 | z2 .d2 .d2 | f2 e2!p! z2 | z2 .B2 .B2 | c2 B2 z2 | %100
 z2[K:bass]!p! .D2 .D2 |[Q:1/4=170]"^pochissimo riten." F2"_dim." E2 z2 | %102
[Q:1/4=160] z2 .[F,A,D]2 .[F,A,D]2 |[Q:1/4=150] [A,DF]6 |!pp! .[G,B,E]2 z2 z2 :| %105
[K:treble]!f![Q:1/4=80]"^ten." [=EGc]3[Q:1/4=180]"^a tempo" z/ G<=ec/ | g>=ec'>g !wedge!=e'2 | %107
 !wedge!=e'2 z2!p! .[c=e]2 | ([c=e]4 .[=Bd]2) |!f! [=Bd]3 z/ B<fd/ | =b>fd'>b !wedge!f'2 | %111
 !wedge!f'2 z2!p! .f2 | f4 .=e2 |!f! =e3 z/ B<e_d/ | g>=eb>g !wedge!_d'2 | !wedge!G2 !wedge!b2 z2 | %116
 !wedge!=E2 !wedge!g2 z2 |!p!!<(! F6 | [cc']4 [cc']2!<)! |!mf! [cc']2!>(! [=B=b]2 [_d_d']2 | %120
 [cc']2 [_B_b]2 [Gg]2!>)! |!p! [=E=e]4 [Gg]2 | [cc']4 [Gg]2 | [Bb]6 | [Aa]2 z2 [=A=a]2 | %125
!<(! [Bb]6 | [ff']4!<)!!mf! [ff']2 | [ff']2!>(! [=e=e']2 [_g_g']2 | [ff']2 [_e_e']2 [cc']2!>)! | %129
!p!!<(! [=A=a]4 [cc']2!<)! |!mf! [ff']4 [cc']2 |!>(! [ee']6!>)! |!mp! [_d_d']2 z2 d2 | %133
!<(! c4 (5:4:5e/f/e/=d/e/!<)! |!mf!!>(! a4 e2!>)! |!p![Q:1/4=190]"^poco accel." f2 =e2 _g2 | %136
 f2 _e2 c2 |!mp! a2 =g2 b2 | a2 _g2 e2 |!p! f2 =e2 _g2 | f2 _e2 c2 |"_cresc." _d6 | [_db]4 [db]2 | %143
 [cb]6- | [cb]4 [GB]2 | [FA]6 | [fa]4 [fa]2 | [fg]6- | [fg]4 [DF]2 | [CE]2 z2 z2 | %150
!f! [cec']4 [cec']2 | [cac']6 | [faf']4 [faf']2 |!ff! [fgd'f']6- | [fgd'f']4 [df]2 | %155
!ff! [ce]4 [Ge]2 |!ff! [Ge]2 [Fd]2 [E=Ac]2 | .[DG=B]2 z2!p! .[Bdg]2 | .[_Acf]2 z2 .[G_Be]2 | %159
 .[FAd]2 z2 .[EGc]2 | .[DF=B]2 z2 .[CEA]2 | .[=B,DG]2 z2[Q:1/4=180]"^poco ritard""_dim." .[=Bdg]2 | %162
 .[_Acf]2 z2[Q:1/4=170] .[G_Be]2 | .[FAd]2 z2 .[EGc]2 | .[DF=B]2 z2[Q:1/4=160] .[CEA]2 | %165
 .[=B,DG]2 z2[K:bass] .[A,CF]2 | .[G,CE]2 z2!pp! .[F,=B,D]2 | %167
[Q:1/4=180]"^Tempo I."!f! [E,G,C]3 z/[K:treble] G<ec/ | g>ec'>g !wedge!e'2 | %169
 !wedge!e'2 z2!p! .[Gc]2 | [Gc]4 .[G=B]2 |!f! [FA=B]3 z/ B<fd/ | =b>fd'>b !wedge!f'2 | %173
 !wedge!f'2 z2!p! .[=Bd]2 | [=Bd]4 c2 |{/ce} g3 f e2 | d4 .c2 |{/Gce} g3 f!<(! [ce]2!<)! | %178
!mp!!>(! [=Bd]4!>)!!p! .c2 |{/Gce} [Gg]3 [Ff] [Ee]2- | [Ee]2 .[Dd]2 !>![Cc]2- | %181
 [Cc]2 .[=B,=B]2 !>![A,A]2- | [A,A]2 .[G,G]2 z2 | z2!pp! (3=B,DF (3AGF | .E2 z2 z2 | %185
 z2 (3F,A,D (3FED | .C2 z2 z2 |!ff! z2 (3G,=B,D (3FDB, | .C2 z2 z2 | z6 | z6 |!p! z2 F2 _d2 | %192
!<(! _d4 d2-!<)! |!mp! d2!>(! e2 _c2-!>)! |!p! c2 =A2 B2 | z2!p! f2 _d'2 |!<(! _d'4 d'2-!<)! | %197
!p! d'2!>(! e'2 _c'2-!>)! |!p! c'2 =a2 b2 | z2!p! =d2 b2 |!<(! b4 b2-!<)! | %201
!p! b2!>(! _c'2 a2-!>)! |!p! a2!<(! f2 _g2- | g2 a2 f2-!<)! |!p! f2!>(! f2 =e2- | e2 f2 A2!>)! | %206
!p! G2 z2 z2 | z2 _d2 d2 | _d2 c2 z2 | z2 B2 B2 | B2 =A2 z2 | z =d^cd=ed | z =c=Bcdc | z _B=ABcB | %214
 =A6-!mp! |!<(! A3 c f2!<)! |!mf!!>(! f6!>)! |!mp! =e2 z2 z2 | c6 | %219
!<(! (5:3:5cdc=Bc .g!<)!!mf! ._b2 |!>(! b6!>)! |!mp! =a2 z2 z2 | .=A.B.c.d!<(!.=e.f | %223
 .g.=a.b.c'.d'!<)!!mf!.=e' | f'6 | .=e'2!mf! z2 z2 |!mp! .C.D.=E.F!<(!.G.=A | %227
 .B.c.d.=e.f!mf!.g!<)! | _a6 |!mf!!>(! a2 g2 f2!>)! |!mp! _e4!<(! f/e/d/e/!<)! | %231
!mf!!>(! g2!>)!!mp! f2 d2 |!f! [Ee]6- | [Ee]3 .[Gg] [cc']2 | !>![cc']6 | [=B=b]2 z2 z2 | [Gg]6- | %237
 [Gg]3 .[dd'] [ff']2 | [ff']6 | [ee']2 z2 z2 | EGcGce | cegegc' | c'6 | =b2 z2 z2 | G,=B,DB,DG | %245
 DG=BGBd | e2 z2 c'2- | c'4[K:bass]!f! !tenuto!.E,2 | !tenuto!.F,6 | ^F,6 | G,6 | %251
!f!!>(! T=F,/4G,/4F,/4G,/4F,/4G,/4F,/4G,/4F,/4G,/4F,/4G,/4F,/4G,/4F,/4G,/4F,/4G,/4F,/4G,/4!>)!!mp!=E,/F,/ | %252
!mp! _E,!<(!G,CG,CE |[K:treble] GEGceg!<)! |!f! c'2 z2[K:bass] C2- | C4!f! =E,2 | F,4 C2 | %257
!f! ^F,4 C2 |!f!"_cresc." G,C=B,CG,C | A,C=B,C!>!^F,C |!ff! G,C=B,C!>!=E,C | F,CA,C!>!^F,C | %262
!ff! !wedge!G,2[K:treble] z3/2 G/ e>c | !wedge!^f2 z3/2 ^F/ e>c | !wedge!g2 z3/2 G/ e>c | %265
 !wedge!=a2 z3/2 =A/ e>c | !wedge!g3 .e (e.c) | (c.G)(G.E)(E.C) |[K:bass] (C.G,)(G,.E,)(E,.C,) | %269
!ff! z2 z2 [D,F,G,=B,]2 |!ff! [E,G,C]2 z2 z2 | z2[K:treble]!p!!<(! .[=B,DFG]2 .[B,DFG]2!<)! | %272
!mp!!>(! A2!p! G2!>)! z2 | z2!p!!<(! .[DF=B]2 .[DFB]2!<)! |!mp!!>(! d2!p! c2!>)! z2 | %275
 z2!p!!<(! .[=B,DFG]2 .[B,DFG]2!<)! |!mp!!>(! A2!p! G2!>)! z2 | %277
[K:bass] z2!p! .[D,F,=B,]2 .[D,F,B,]2 |[Q:1/4=170]"^pochissimo riten.""_dim." D2 C2 z2 | %279
[Q:1/4=160] z2 .[D,F,=B,]2 .[D,F,B,]2 |!pp! .[E,G,C]2 z4 | %281
[K:treble]!ff![Q:1/4=180]"^a tempo" !wedge![G=Bdg]2 z2 z2 | !wedge![CEGc]2 z2 z2 | %283
[Q:1/4=45] !fermata!z6 |] %284
[K:Ab][M:2/4][Q:1/4=34]"^Adagio molto"!p! A3/2!<(!B/8A/8G/8A/8!<)!!mp!!>(! c>B!>)! |!p! A3 =A | %286
 B3/2!<(!c/8B/8=A/8B/8!<)!!mp!!>(! d>c!>)! |!p! B3 =B |"_cresc." c7/4A/4 e7/4c/4 | %289
 f7/4d/4!f! !arpeggio![xAda]/- [xA-d-a]3/2 |!>(! a/g/f/e/!>)!!p! [Bd][Ac] | %291
 e>c TB/{/=AB}d/4c/4 e/4d/4(3c/4d/4B/4 |!p! A3/2!<(!B/8A/8G/8A/8!<)!!mp!!>(! c>B!>)! |!p! A2 z2 | %294
 B3/2!<(!c/8B/8=A/8B/8!<)!!mp!!>(! d>c!>)! |!p! B2 z2 |"_cresc."{/E} .c7/4.A/4{/E} .e7/4!mf!.c/4 | %297
{/F} f3!pp! [=Ae]/[Bd]/ | cedB |!p! B2 A z |!f!{/f} f'2{/e'c'=afec=A} .F z3/4!p! .[CE]/4 | %301
 [CE]2 [B,D] z |!f!{/e} e'2{/d'bgedBG} .E z3/4!p! .[B,D]/4 | [B,D]2 [A,C] z | %304
!ff! z2 z z3/4 .[E,A,E]/4 | (E2!p! .=D/)(=E/.F/)(=A/ | %306
!<(! .B/)(^c/.=d/)!<)!!mp!(=e/ .f/)!>(!g/a/f/!>)! |!pp! =d2- d/e/8d/8c/8d/8 e/>f/ | f e2 =e | %309
 f2-!<(! f/g/8f/8=e/8f/8g/>a/!<)! |!p!!>(! a!>)!!pp!g/ z/ z2 | %311
 (6:4:6z/8 =D/8E/8F/8E/8D/8(6:4:6A/8G/8F/8=d/8c/8B/8 (6:4:6f/8e/8d/8a/8g/8f/8c'/- c'3/2(7:4:7c'/8b/8a/8g/8f/8e/8d/8 | %312
 f/>e/ =d/4>e/4f/4>e/4 E z | %313
 (6:4:6z/8 F/8G/8A/8G/8F/8(6:4:6=d/8c/8B/8f/8e/8d/8 (6:4:6a/8g/8f/8=d'/8c'/8b/8f'/- f'3/2(6:4:6f'/8e'/8d'/8c'/8b/8a/8 | %314
!p! g3/2z/4[Q:1/4=40]"^poco stringendo"g/4 a3/2"_cresc."z/4a/4 | b3/2z/4[Q:1/4=46]b/4 =b3/2z/4b/4 | %316
 c'3/2z/4[Q:1/4=52]c'/4 =d'3/2z/4d'/4 | %317
!f! e'3/2z/4(5:4:5e'/16f'/16e'/16=d'/16e'/16[Q:1/4=34]"^a tempo" f'/!f!.e'/.d'/.c'/ | %318
!p! b/=a/c'/b/ _a/g/f/b/ |!pp! (3f/g/G/ (3z/[Q:1/4=40]"^poco stringendo" g/G/ (3g/a/A/ (3z/ a/A/ | %320
"_cresc." (3=a/b/B/ (3z/[Q:1/4=46] b/B/ (3b/=b/=B/ (3z/ b/B/ | %321
 (3!>!=b/c'/c/ (3z/[Q:1/4=52] c'/c/ (3!>!^c'/=d'/=d/ (3z/ d'/d/ | %322
[Q:1/4=58] (3!>!=d'/!f!e'/e/ (3z/ e'/e/[Q:1/4=34]"^a tempo"!f! (3!>!e'/_g/!f!!>!e'/ (3=a/!f!!>!e'/a/ | %323
!f! b2- (3b/=a/c'/!p! (3.b/._a/.g/ | f7/4Tf/16g/16f/16g/16{/=ef} b7/4!f!b/4 | %325
 _e z (3z/ =A/c/!p! (3.B/._A/.G/ | F7/4TF/16G/16F/16G/16{/=EF} B7/4!p!B/4 | _E z z2 | %328
!ff! [G,-B,-_DE-G-]/ [G,B,DEG]/ z z2 |!p! A3/2!<(!B/8A/8G/8A/8!<)!!mp!!>(! c>B!>)! | %330
 A2- A/G/A/=A/ | B3/2!<(!c/8B/8=A/8B/8!<)!!mp!!>(! d>c!>)! | [GB-]2 (3B/f/e/(3d/c/=B/ | %333
"_cresc." c7/4A/4 e7/4c/4 | f7/4!f!d/4 a2- | a/!f!g/!>(!f/e/ e/d/d/c/!>)! | %336
!p! e>c TB/{/=AB}d/4c/4e/4d/4c/8e/8d/8B/8 | _A3/2!<(!B/8A/8G/8A/8!<)!!mp!!>(! c>B!>)! | A2 z2 | %339
 B3/2!<(!c/8B/8=A/8B/8!<)!!mp!!>(! d>c!>)! | [EGB]2 z2 |"_cresc."{/E} .c7/4.A/4{/E} .e7/4.c/4 | %342
!f!{/F-} [Ff]2- [Ff]- (3[Ff]/[=Ae]/[_Bd]/ |!p! cedB | B2 A z | %345
!ff!{/f} f'2{/e'c'=afec=A} .F z3/4!p! .[CE]/4 | [CE]2 [B,D] z | %347
!ff!{/e} e'2{/d'bgedBG} .E z3/4!p! .[B,D]/4 | [B,D]2 [A,_C] z |!ff! z2 z z3/4[K:bass] [_F,A,_F]/4 | %350
 _F2!p! E z3/4 E/4 | E2!p! =D z3/4 D/4 | =D2!p! _D/[K:treble] (=A/.B/)(c/ | %353
 .d/)(^f/.g/)(=a/ .b/)c'/d'/b/ |!pp! g2- g/a/8g/8f/8g/8_a/>b/ | b a2 =a | %356
 b2-!<(! b/c'/8b/8=a/8b/8c'/>!<)!!p!d'/ |!>(! d'!pp!c'/!>)! z/ z2 | %358
 (6:4:6z/8 G/8A/8B/8A/8G/8(6:4:6d/8d/8B/8f/8e/8d/8 (6:4:6b/8a/8g/8e'/8c'/8b/8f'/- f'3/2(7:4:7f'/8e'/8d'/8c'/8b/8a/8g/8 | %359
 b/>a/ g/4>a/4b/4>a/4 A z | %360
 (6:4:6z/8 B/8c/8d/8c/8B/8(6:4:6f/8e/8d/8b/8a/8g/8d'- d'3/2(6:4:6c'/16d'/16e'/16d'/16c'/16b/16(5:4:5a/16g/16f/16e/16d/16 | %361
!p! c3/2z/4[Q:1/4=40]"^poco string."(c/4 d3/2)"_cresc."z/4d/4!pp! | %362
 e3/2z/4[Q:1/4=46](e/4 =e3/2)z/4(e/4 | f3/2)z/4[Q:1/4=52](f/4 g3/2)z/4(g/4 | %364
!f! a3/2)z/4(5:4:5a/16b/16a/16g/16a/16[Q:1/4=34]"^a tempo" (b/!>(!.a/)(g/.f/)!>)! | %365
!p! e/=d/f/e/ _d/c/B/e/ |!pp! (3=B/c/C/ (3z/[Q:1/4=40]"^poco string." c/C/ (3c/d/D/ (3z/ d/D/ | %367
"_cresc." (3=d/e/E/ (3z/[Q:1/4=46] e/E/ (3e/=e/=E/ (3z/ e/E/ | %368
 (3=e/f/F/ (3z/[Q:1/4=52] f/F/ (3^f/g/G/ (3z/ g/G/ | %369
[Q:1/4=58] (3g/!f!a/A/ (3z/ a/A/[Q:1/4=34]"^a tempo" (3_c'/!f!_c/c'/!f! (3A/a/!f!A/ | %370
 e z (3z/ .=d'/f'/ (3.e'/._d'/.c'/ | b7/4!f!Tb/4{/=ab} e'7/4!f!e'/4 | %372
 _a!>(! z (3z/ .=d/.f/!>)!!p! (3.e/._d/.c/ | B7/4!f!TB/4{/=AB} e7/4!f!e/4 |!mp! A2!mp! c>!mp!B | %375
 A2- A>=A | B3/2!<(!c/8B/8=A/8B/8!<)!!mp!!>(! [_Ad]>[Ac]!>)! | [GB]4 |!mp! !>!e2 d2 | c2 Bd/>B/ | %380
 A2 =AB | =B[Cc] [Dd][=D=d] | !>!e2 _d2 | c2 B/c/d/>B/ |!pp! A/eeee/ | _A z z2 | %386
!p! [Bd]2!p! [Bd]2 |!p! [Ac] z z2 |!p! [DB]2!p! [DB]2 | %389
 [CA]/[K:bass]!pp! [E,E][E,E][E,E]!pp![E,E]/- |!p! [E,E]/!pp![E,E][E,E]!pp![E,E][E,E]/- | %391
 [E,A,CE]/[E,A,CE][E,A,CE][E,A,CE][E,A,CE]/- | [E,A,CE]/[E,A,C][E,A,C][E,A,C][E,A,C]/- | %393
 [E,A,C]/[Q:1/4=30]"^poco ritard"[C,E,A,][C,E,A,][C,E,A,][C,E,A,]/- | [C,E,A,] z [C,E,] z | %395
[Q:1/4=15] !fermata![A,,C,]4 |]:[K:Eb][M:2/2][K:treble][Q:1/4=180]"^Prestissimo"!p! C =B,.C.F .F | %397
 E2 z C =B,.C.A.A | G2 z"_cresc." C =B,Ccc |!mf! cd/4c/4=B/4c/4 ed!>(! fedc | %400
 =B2!>)! z!p! G, ^F,.G,.C.C | =B,2 z G, ^F,.G,.E.E | D2 z!<(! .G, .=B,.D.=F.A!<)! | %403
!mf! .=B.d.f.a!>(! .g.f.e.d!>)! |!mp! c2 z!mp!!<(! c =B.c!<)!!mf!.c'.c' | %405
 c'2 z f'!>(! e'd'c'=b!>)! |!mp! d'c' z!<(! c =B.c!<)!!mf!.c'.c' | %407
 c'(3d'/c'/=b/ c'f'!>(! e'd'c'=b!>)! |!mp!"_cresc." c'/d'/c'/=b/ c'/e'/d'/c'/ b/c'/b/a/ g/f/e/d/ | %409
 c/d/c/=B/ c/e/d/c/ B/c/B/A/ G/F/E/D/ | C/D/C/=B,/ C/E/D/C/!f! B,/G/D/B,/ G,/!f!G/E/C/ | %411
[Q:1/4=160]"^ritardando" G,/G/D/=B,/[Q:1/4=150] G,/!f!G/E/C/[Q:1/4=140] G,/G/D/B,/[Q:1/4=130] G,/!f!G/E/C/ | %412
[Q:1/4=90] !fermata![G,=B,DG]4 z!p![Q:1/4=144]"^a tempo, ma un poco sostenuto" ._B,.C.D | %413
 .E.F .G2 .[B,DF]2 .[B,E]2 | [A,B,DA]4 z[K:bass] .B,.C.D | .E.F .G2 .[F,CF]2 .[F,CE]2 | %416
 [D,F,B,]4 z[K:treble]!p! .B,.C.D | .E.F .G2 .[B,DF]2 .[B,E]2 | %418
 (3C/E/A/ c3-[Q:1/4=150]"^stringendo" c!p!.c.B.A | .G.F.E.D[Q:1/4=156] C2 B,2 | %420
 [E,G,B,]4[Q:1/4=162] z .B.A.G | .G.F.E.D[Q:1/4=168] C2 B,2 | %422
 [E,G,B,]4[Q:1/4=174] z!mf! .[Bb].[Aa].[Gg] | %423
 (!>![Gg].[Ff]).[Ee].[Dd][Q:1/4=180] .[Cc].[B,B].[Cc].[Dd] | %424
[Q:1/4=180]"^Tempo I"!mp! !//-!E2 e2 !//-!E2 e2 | !//-!E2 e2 !//-!E2 e2 | %426
"_cresc." [Ee]2 z e d.e.[ac'].[ac'] |!ff! [ac']2 c'/b/a/g/ f/e/d/c/ =B/_B/=A/_A/ | %428
 (3GAB (3AGF (3EDC (3B,A,G, | z/ F,/A,/C/ F2 z/ F,/A,/B,/ D2 | d2 d'2 d2 d'2 | %431
 e2 e'2 e/e'/e/e'/ =e/=e'/e/e'/ | z/ f/a/c'/ .f'2 z/ d/f/a/ .d'2 | .[egbe']2!ff! .b.b .b2 .b.b | %434
 .b2 .[F,A,D]2 z2!p! .[F,A,D]2 | .[G,E]2 .[CEF]2 .[B,EG]2 .[_A,DF]2 | %436
 .[G,E]2!ff! b/c'/b/=a/ b2 b/c'/b/a/ | b2 [F,A,D]2 z2 [_E,_G,=A,_E]2- | %438
 [E,G,A,E]2!p! .[=CEF]2 .[B,E=G]2 .[_A,DF]2 | [G,E]2 ([DA].[EG]) z2 ([Ad].[Ge]) | %440
 z2 ([da].[eg]) z2 ([ad'].[ge']) | z2 .[G,B,E]2 z4 | z2 z :| z z4 | z2 z!p! E D.E.B.B | %445
 ^C.D.B.B z4 | z2 z!p! F =E.F.B.B | ^D.=E.B.B"_cresc." E.F._d.d | (^F.G)!mf!._d.d"_dim." cB=AB | %449
!p! (G._A)"_cresc.".=f.f (=B.c).a.a | (=e.f).=b.b (g.a).d'.d' |!ff! (^c'.d').f'.f' f'4 | %452
 z .A.A.A =B,4 |[K:bass] .=B,,.A,.A,.A, .B,,.A,.A,.A, | %454
[Q:1/4=45] !fermata!=B,,3[K:treble][Q:1/4=180]!p! C =B,.C.F.F | E2 z C =B,.C.A.A | %456
 G2 z C"_cresc." =B,.C.c.c |!mf! cd/4c/4=B/4c/4 ed!>(! fedc | =B2!>)! z!p! G, ^F,.G,.C.C | %459
 =B,2 z G, ^F,.G,.E.E | D2 z!<(! .G, .=B,.D.=F.A!<)! |!mf! .=B.d.f.a!>(! .g.f.e.d!>)! | %462
!mp! c2 z!mp!!<(! c =B.c!<)!!mf!.c'.c' | c'2 z f'!>(! e'd'c'=b!>)! | %464
!mp! d'c' z c (5:4:5=B/c/^c/d/e/ =e/f/^f/g/ | a/=a/b/=b/ c'f' e'd'c'b | %466
!mp!"_cresc." c'/d'/c'/=b/ c'/e'/d'/c'/ b/c'/b/a/ g/f/e/d/ | c/d/c/=B/ c/e/d/c/ B/c/B/A/ G/F/E/D/ | %468
 C/D/C/=B,/ C/E/D/C/!f! B,/G/D/B,/ G,/!f!G/E/C/ | %469
[Q:1/4=160]"^ritard" G,/G/D/=B,/[Q:1/4=150] G,/!f!G/E/C/[Q:1/4=140] G,/G/D/B,/[Q:1/4=130] G,/!f!G/E/C/ | %470
[Q:1/4=90] !fermata![G,=B,DG]4[Q:1/4=144]"^a tempo, ma un poco sostenuto" z!p! .G.=A.=B | %471
 .c.d .=e2 .d2 .c2 | f4 z .G.=A.=B | .c.d .=e2 .d2 .c2 | [=B,DG]4 z .G.=A.=B | .c.d .=e2 .d2 .c2 | %476
!ff! (3=A/c/f/ =a3-[Q:1/4=150]"^stringendo" a!p!.a.g.f | (!>!=e.d)(c.=B)[Q:1/4=156] =A2 G2 | %478
 G4[Q:1/4=162] z gf=e | !>!=edc=B[Q:1/4=168] _A2 G2 | G4!mf![Q:1/4=174] z .[Gg].[Ff].[Ee] | %481
 (!>![Ee].[Dd])[Cc].[=B,=B][Q:1/4=180] .[_A,_A].[G,G].[=A,=A].[B,B] | %482
[Q:1/4=180]"^Tempo I." [Cc]2 z"_cresc." c =Bc.[df].[df] | [ce]2 z c =Bc.[fa].[fa] | %484
 [eg]2 z c' =bc'.[d'f'].[d'f'] |!ff! [d'f']2 f'/e'/d'/c'/ =b/c'/d'/c'/ b/a/g/f/ | %486
 (3efg (3fed (3c_BA (3GFE |!f! z/ D/F/A/ .d2 z/ =B,/D/F/ .=B2 |!mf! !//-!=B2 =b2 !//-!B2 b2 | %489
 !//-!c2 c'2 !//-!c2 c'2 | z/ f/a/d'/ .f'2 z/ d/f/=b/ .d'2 | [cegc']2!ff! .g.g .g2 .g.g | %492
 .g2[K:bass] .[D,F,=B,]2 z2!p! .[D,F,B,]2 | .[C,E,C]2 .[=A,CD]2 .[G,CD]2 .[=F,=B,D]2 | %494
 .[E,G,C]2[K:treble]!ff! g/a/g/^f/ .g2 g/a/g/f/ | .g2[K:bass] .[D,F,=B,]2 z2!ff! [=C,E,^F,=C]2- | %496
 [C,E,F,C]2!p! .[=A,CD]2 .[G,CE]2 .[=F,=B,D]2 | [E,G,C]2[K:treble] ([=B,F].[CE]) z2 ([F=B].[Ec]) | %498
 z2 ([=Bf].[ce]) z2 ([f=b].[ec']) |"_cresc." z2 ([C_G].[_DF]) z2 ([F_d].[Gc]) | %500
 z2 ([_df].[c_g]) z2 ([f_d'].[gc']) | [_ge']8 | %502
[Q:1/4=160]"_poco rit."!>(! _d'2 c'2[Q:1/4=140] b2 a2!>)! | %503
!pp! (3f/_g/a/[Q:1/4=60] !fermata!g3 z[K:bass][Q:1/4=160]"^ritardando"!p!"_dim." .A,.B,.C | %504
 ._D.E[Q:1/4=150] .F2 .[A,E]2 .[A,D]2 | [_G,A,C_G]4-[Q:1/4=140] [G,A,CG].A,.B,.C | %506
 ._D.E .F2 .[E,B,E]2 .[E,B,D]2 |[Q:1/4=130] [C,E,A,]4 z .A,.B,.C | ._D.E .F2 .[A,E]2 .[A,D]2 | %509
[Q:1/4=110] _G3 E[Q:1/4=60]!pp! !fermata!C4 | %510
!pp![Q:1/4=144] x4[Q:1/4=72]"^Adagio" ^F3 E[Q:1/4=30] !fermata!C4 | %511
[Q:1/4=144]"^Tempo I"!ff! x4[Q:1/4=180] .G!ff!.E.C.G, .E,.C,.=B,,.D, | %512
!>(! .C, z z2 z!>)![K:treble]!p! .C.D.E | .F.G.A c' =b.c'.f'.f' | .=e'2 z2 z .C.D.=E | %515
 .F.G.A c' =b.c'.f'.f' | .=e'2 z c =B.c"_dim.".f.f | .=e2 z C =B,.C.F.F | %518
 .=E2 z[K:bass] C,, C,,2 z C,,[Q:1/4=150]"^poco rit."[Q:1/4=130] | %519
!pp![Q:1/4=60] C,,2 !fermata!z2 |] %520
V:2
|:"^ten." [C,E,G,C]3 z z2 | z6 | z2 z2[K:treble] .[CE]2 | [CE]4 .[DF]2 | %4
[K:bass] [D,F,A,=B,D]3 z z2 | z6 | z2 z2[K:treble] .[DFA]2 | [DFA]4 [EG]2 | %8
 z2 z2[K:bass] [E,G,C]2 | [F,A,=B,]4 .[E,G,C]2 | z2 z2[K:treble] [EG]2 | [FA]4 .[EG]2 | %12
[K:bass] z2 z2 [E,G,C]2 | !>![F,A,=B,]4 [E,G,]2 | [D,F,]4 [C,E,]2 | [=B,,D,]2 z2 z2 | %16
 z2 z2 [=B,,D,F,A,]2 | .[C,E,G,]2 z2 z2 | z2 z2 [F,,A,,D,]2 | .[G,,C,E,]2 z2 z2 | %20
 z2!ff! z2 [G,,,G,,]2 | [E,G,]3 z z2 | z2 z2 !wedge![C,E,G,]2 | !wedge![=B,,D,G,]2 z2 z2 | %24
 z2 z2 !wedge![=B,,D,G,]2 | !wedge![C,E,G,]2 z4 | z2 z2 .[E,G,C]2 | !wedge![F,A,D]2 z2 z2 | %28
 !wedge![G,=B,D]2 z2 z2 | !wedge![C,E,G,C]2 z2 z2 | z6 |!f! E6- |!p! E6- | [CE]6 | [B,_D]6 | %35
 [A,E]6 |[K:treble] c6- | c6 | B6 | A6 | A6- | A6 | _G6 | F6 |[K:bass] [_C_E]6 | B,6 | =A,6 | %47
!p! z2 F,2 =G,2 | _A,2 =E,2 F,2 | G,2 D,2 _E,2 | F,2 C,2 D,2 | E,2 F,2 G,2 | A,2 =E,2 F,2 | %53
 G,2 D,2 _E,2 | F,2 C,2 D,2 |!p! E,B,G,B,F,B, | G,B,F,B,G,B, | F,B,G,B,A,B, | F,B,G,B,A,B, | %59
 D,B,F,B,E,B, | D,B,E,B,F,B, | E,B,F,B,G,B, | E,B,F,B,G,B, | E,B,G,B,E,B, | E,B,G,B,E,B, | %65
 F,B,A,B,F,B, | F,B,A,B,F,B, | D,B,F,B,D,B, | D,B,F,B,D,B, | z"^cresc." E,D,E,D,E, | %70
 G,,E,A,,E,B,,E, | A,,E,B,,E,C,E, | =A,,E,B,,E,C,E, |!f! B,,G,E,G,B,,G, | B,,F,D,F,B,,F, | %75
 [E,,E,]2 z2 z2 | z6 | G,,E,A,,E,B,,E, | !>!G,,E,A,,E,B,,E, | !>!A,,E,B,,E,C,E, | %80
 !>!=A,,E,B,,E,C,E, | B,,E,D,E,!>!=B,,E, | C,E,D,E,!>!=A,,E, | _B,,E,_D,E,!>!=B,,E, | %84
 C,E,=D,E,!>!=A,,E, | !wedge!B,,2 !wedge![B,,E,G,]2 z2 | z2!ff! !wedge![C,E,^F,]2 z2 | %87
 z2!ff! !wedge![B,,E,G,]2 z2 | z2 !wedge![=A,,E,^F,=A,]2 z2 | z2 !wedge![B,,E,G,B,]2 z2 | z6 | z6 | %92
 [B,,,B,,]6 | x2 B,,4- | B,,6 | E,,2 G,,2 B,,2 | B,,,2 F,,2 B,,2 | x2 B,,4- | B,,6 | %99
 E,,2 G,,2 B,,2 | B,,,2 F,,2 B,,2 | E,,2 G,,2 B,,2 | B,,,2 F,,2 B,,2 | E,,2 G,,2 B,,2 | %104
 .E,2 z2 z2 :| [C,=E,G,C]3 z z2 | z6 |[K:treble] z2 z2 .[=EG]2 | ([=EG]4 .[FA]2) | [FA]3 z z2 | %110
 z6 | z2 z2 .[FA]2 | [FA]4 .[G_B]2 | [GB]3 z z2 | z6 | z6 | z6 |[K:bass]!pp!!<(! F,CA,CF,C | %118
 F,CA,CF,C!<)! | G,!mp!!>(!CB,CG,C | =E,CG,CE,!>)!C |!pp! C,C=E,CG,C | =E,CG,CB,C | F,CA,CF,C | %124
 F,C=E,F,_E,F, |!<(! _D,F,C,F,D,F, | B,,F,C,F,!<)!!mp!_D,F, | C,F,!>(!_E,F,C,F, | %128
 =A,,F,C,F,A,,F,!>)! |!pp! F,,F,=A,,F,C,F, | =A,,F,C,F,E,F, | B,,F,_D,F,B,,F, | B,,F,_D,F,B,,F, | %133
 A,,_G,E,G,A,,G, | A,,_G,C,G,A,,G, | [_D,F,]2 z4 |[K:treble] A2 _G2 E2 | F2 =E2 _G2 | F2 _E2 C2 | %139
[K:bass] _D2 C2 _E2 | _D2 C2 =A,2 | B,2 _D2 _A,2 | G,2 B,2 F,2 | =E,2!p! G,2 =D,2 | C,2 D,2 =E,2 | %145
"^cresc." F,2 A,2 _E,2 | D,2 F,2 C,2 | =B,,2!p! D,2 =A,,2 | G,,2 =A,,2"^cresc." =B,,2 | %149
 C,2 E,2 _B,,2 | A,,2 C,2 G,,2 | !>!F,,2!f! A,,2 E,,2 | D,,2 !>!F,,2 C,,2 | =B,,,2 D,,2 =A,,,2 | %154
 G,,,2 =A,,,2 =B,,,2 | C,,2 D,,2 E,,2 | F,,4 ^F,,2 | .G,,2 .G,2 z2 | z2 .G,2 z2 | z2 .G,2 z2 | %160
 z2 .G,2 z2 | z2 .G,,2 z2 | z2 .G,,2 z2 | z2 .G,,2 z2 | z2 .G,,2 z2 | z2 .G,,2 z2 | %166
 z2 .[G,,,G,,]2 z2 | [C,,E,,G,,C,]3 z z2 | z6 |[K:treble] z2 z2 .[CE]2 | [CE]4 .[DF]2 | %171
[K:bass] [D,F,A,=B,D]3 z z2 | z6 | z2 z2[K:treble] .[DFA]2 | [DFA]4 [EG]2 | %175
 z2 z2[K:bass] [E,G,C]2 | [F,A,=B,]4 .[E,G,C]2 | z2 z2[K:treble] [EG]2 | [FA]4 .[EG]2 | %179
[K:bass] z2 z2 [E,G,C]2 | !>![F,A,=B,]4 [E,G,]2 | [D,F,]4 [C,E,]2 | [=B,,D,]2 z2 z2 | %183
 z2 z2 [=B,,D,F,A,]2 | .[C,E,G,]2 z2 z2 | z2 z2 [F,,A,,D,]2 | .[G,,C,E,]2 z2 z2 | %187
 z2 z2!ff! .[G,,,G,,]2 | .[C,,C,]2 z2 z2 | z6 | _D6- | D6- | D6 | [A,_C]6 | [_G,_D]6 | %195
[K:treble] _d6- | [Bd]6 | [A_c]6 | [_G_d]6 | B6- | [_GB]6 | [FA]6 | [E_G]6 | [_DF]6 | [C=G]6 | %205
 =B,6 |[K:bass] C2 G,2 A,2 | B,2 F,2 G,2 | A,2 =E,2 F,2 | G,2 D,2 =E,2 | F,2 G,2 =A,2 | %211
 B,2 ^F,2 G,2 | =A,2 =E,2 =F,2 | G,2 D,2 =E,2 |!p! F,C=A,CG,C | F,CG,C=A,C | G,C=A,CB,C | %217
 G,C=A,CB,C | =E,CG,CF,C | =E,CF,CG,C | F,CG,C=A,C | F,CG,C=A,C | F,C=A,CF,C | F,C=A,CF,C | %224
 G,CB,CG,C | G,CB,CG,C | =E,CG,CE,C | =E,CG,CE,C | F,CG,C_A,C | F,CG,CA,C | G,ECEG,E | G,D=B,DG,D | %232
 C,G,E,G,D,G, | C,G,E,G,D,G, | D,G,E,G,F,G, | D,G,E,G,F,G, | =B,,G,D,G,C,G, | =B,,G,C,G,D,G, | %238
 C,G,D,G,E,G, | C,G,D,G,E,G, | C,G,E,G,C,G, | C,G,E,G,C,G, | D,G,F,G,D,G, | D,G,F,G,D,G, | %244
 =B,,G,D,G,B,,G, | =B,,G,D,G,B,,G, | z!mf!"^cresc." C,=B,,C,B,,C, | =E,,C,F,,C,G,,C, | %248
 F,,C,G,,C,A,,C, | ^F,,C,G,,C,=A,,C, | G,,E,C,E,G,,E, |!f!!>(! G,,D,=B,,D,G,,!>)!!mp!D, | %252
 [C,,C,]2 z2 z2 | z6 |!mf! E,,C,F,,C,G,,C, | =E,,C,F,,C,G,,C, | F,,C,G,,C,A,,C, | %257
 ^F,,C,G,,C,=A,,C, | G,,C,=B,,C,G,,C, | A,,C,=B,,C,!>!^F,,C, | G,,C,=B,,C,!>!=E,,C, | %261
 F,,C,A,,C,!>!^F,,C, | !wedge!G,,2 !wedge![G,CE]2 z2 | z2 !wedge![A,CE]2 z2 | %264
 z2 !wedge![G,CE]2 z2 | z2 !wedge![^F,CE]2 z2 | z2 !wedge![G,CE]2 z2 | z6 | z6 | [G,,,G,,]6 | %270
 x2 G,,4- | G,,6 | C,,2 E,,2 G,,2 | G,,,2 D,,2 G,,2 | x2 G,,4- | G,,6 | C,,2 E,,2 G,,2 | %277
 G,,,2 D,,2 G,,2 | C,,2 E,,2 G,,2 | G,,,2 D,,2 G,,2 | .C,,2 z4 | !wedge![G,,,=B,,,D,,G,,]2 z2 z2 | %282
 !wedge![C,,E,,G,,C,]2 z2 z2 | !fermata!z6 |][K:Ab][M:2/4] [A,,E,A,]2 [G,,E,G,]2 | [A,,E,A,]3 z | %286
 DB,A,C | [E,E]3 z | A,2 [C,A,C]2 | [D,A,D]2!ped! [F,A,DF]/- [F,A,DF]3/2-!ped-up! | %290
 [F,A,DF]2 [G,E][A,E] | C>A, G, z | A,,/.E,/.E,/.E,/ G,,/.E,/.E,/.E,/ | A,,/E,/C,/A,/ E,/C/A,/E/ | %294
 G,/E/E/E/ A,/E/E/E/ | E,/E/=D/E/ D/E/F/_D/ | z/ A,/C/E/ z/ C,/E,/A,/ | %297
 z/!mf! F,/!>(!G,/A,/ =A,/B,/C/D/!>)! |!p! E/=D/_D/C/ B,/C/D/G,/ |!pp! G,2 A, z | %300
!ped! [=A,CEF]2!ped-up! z z3/4 .[=A,,F,]/4 | [B,,F,]3 z | %302
!ped! [G,B,DE]2!ped-up! z z3/4 .[G,,E,]/4 | [A,,E,]3 z | %304
!ped!{/_C,} _C2!ped-up!{/CA,E,C,A,,E,,} ._C,, z3/4 .[C,,C,]/4 | [B,,,B,,]3 z | z4 | %307
!pp! .[A,B,].[A,B,].[A,B,].[A,B,] | .[G,B,].[G,B,].[G,B,].[G,B,] | x3 G,/>F,/ | %310
 [E,^F,B,][E,G,B,][E,G,B,][E,G,B,] | %311
!ped! [A,B,]!ped-up!!ped![A,B,]!ped-up!!ped![A,B,][A,B,]!ped-up! | %312
!ped! z!ped-up!!ped! [G,B,]!ped-up!!ped![G,B,][G,B,]!ped-up! | %313
!ped! [=D,A,B,]!ped-up!!ped![D,F,A,B,]!ped-up!!ped![D,F,A,B,][D,F,A,B,]!ped-up! | %314
 z!pp! [E,G,B,] z [F,A,B,=D] | z"_cresc." [G,B,E] z [G,=B,E] | z [A,CE] z [A,_C=DF] | %317
 z!mp! [=A,=CE_G] z2 | z!pp! [B,E=G] z [B,=DA] | (3z/ z/ E/ (3B,/G,/E,/ (3z/ z/ =F/ (3=D/B,/F,/ | %320
 (3z/ z/ G/ (3E/B,/G,/ (3z/ z/ G/ (3E/=B,/G,/ | %321
[K:treble] (3z/ z/ A/ (3E/C/A,/ (3z/ z/ A/ (3F/=D/B,/ | %322
 (3z/ z/!ped! =A/- (3:2:1A3/2- [CEGA]2!ped-up! | %323
[K:bass] (3z/!>(! .B,,/.E,/ (3.=G,/.B,/.E/ (3=G/^F/_A/!>)! (3.G/.=F/.E/ | [B,A]4 | %325
 (3z/!f! .B,,,/!>(!.E,,/ (3.G,,/.B,,/.E,/ (3G,/^F,/_A,/!>)! (3.G,/.=F,/.E,/ | [B,,A,]4 | %327
 [E,G,] z z2 |!ped! !arpeggio![E,,B,,_D,E,G,]/- [E,,B,,D,E,G,]/!ped-up! z z2 | A,,E,G,,E, | %330
 A,,E,A,C | DB,A,C | EDB,G, | z3/4 A,/4E z3/4 C,/4A, | z3/4 D,/<A,/F,/4 D/>!f!A,/F/>D/ | %335
 [F,A,][F,A,] [G,B,][A,C] | C>A, G, z!ped!!ped-up! | A,,2 G,,2 | %338
 (3.A,,/.E,/.C,/ (3.A,/.E,/.C/ (3.A,/.E/.D/ (3.C/.B,/.A,/ | G,2 A,2 | %340
 (3.E,,/.G,,/.B,,/ (3.E,/.G,/.B,/ (3.D/.F/.E/ (3.D/.C/.B,/ | %341
 (6:4:6.A,/ .E/.C/.A,/.E,/.C,/ (6:4:6z/ .C/.A,/.E,/.C,/.A,,/ | %342
 (6:4:6z/"^dim." D,/E,/F,/_G,/=G,/ (3A,/=A,/B,/ (3=B,/C/D/ | %343
 (3z/ E/=D/ (3z/ _D/C/ (3z/ _B,/C/ (3z/ D/G,/ | A,2 A, z | %345
!ped! [=A,CEF]2!ped-up! z z3/4 .[=A,,F,]/4 | [B,,F,]3 z | %347
!ped! [G,B,DE]2!ped-up! z z3/4 .[G,,E,]/4 | [A,,E,]3 z | %349
!ped!{/_C,} _C2!ped-up!{/CA,E,C,A,,E,,} ._C,, z3/4 .[C,,C,]/4 | [_C,,_C,]3 z3/4 .[C,,C,]/4 | %351
 [_C,,_C,]2 [B,,,B,,] z3/4 .[B,,,B,,]/4 | [B,,,B,,]2 [E,,E,] z | z4 | .[DE].[DE].[DE].[DE] | %355
 .[CE].[CE].[CE].[CE] | x3 C/>B,/ | [A,=B,E][A,CE][A,CE][A,CE] | %358
!ped! [DE]!ped-up!!ped![DE]!ped-up!!ped![DE][DE]!ped-up! | %359
!ped! z!ped-up!!ped! [CE]!ped-up!!ped![CE][CE]!ped-up! | %360
!ped! [G,DE]!ped-up!!ped![G,B,DE]!ped-up!!ped![G,B,DE][G,B,DE]!ped-up! | z [A,CE] z [B,DEG] | %362
[K:treble] z [CEA] z [C=EA] | z [DFA] z [D=EGB] | z [=DFA_c] z2 |[K:bass] z [E,A,=C] z [E,G,_D] | %366
 (3z/ z/ A,/ (3E,/C,/A,,/ (3z/ z/ _B,/ (3G,/E,/B,,/ | %367
 (3z/ z/ C/ (3A,/E,/C,/ (3z/ z/ C/ (3A,/=E,/C,/ | (3z/ z/ D/ (3A,/F,/D,/ (3z/ z/ D/ (3B,/G,/_E,/ | %369
 (3z/ z/!ped! =D/- (3:2:1D3/2- [F,A,CD]2!ped-up! | %370
 (3z/!p! .E,/.A,/[K:treble] (3.C/.E/.A/ (3.c/.=B/._d/ (3.c/._B/.A/ | [Ed]4 | %372
[K:bass] (3z/!f! .E,,/.A,,/ (3.C,/.E,/.A,/ (3.C/.=B,/._D/ (3.C/._B,/.A,/ | [E,D]4 | %374
!p![I:staff -1] [CE]/[CE][CE]/ [DE]/[DE][DE]/ | [CE]/[CE][CE][CE][CE]/ | [DE]/EE/- E/EE/- | %377
 E/EEEE/- | E/E!p!EEE/ |!p! E/E!p!=E/- E/FF/- |!p! F/_E!p!EE!p!E/- | E/E!p!E!p!E!p!E/ | %382
!mp! E!p!E!p! [DE][DE] |!p! [CE][C=E]!p! F>F |!mp![I:staff +1] x4 | [A,,A,]!p!C,E,A, | G,F,E,G, | %387
 A,E,C,A,, | G,,F,,E,,G,, | A,,E,,C,,[A,,,A,,] | [G,,,G,,][F,,,F,,][G,,,G,,][E,,,E,,] | %391
!p!!ped! z"^dim." A,,3- | A,, A,,3- | A,, A,,3- |!pp! [A,,,A,,] z A,,, z | %395
 !fermata!A,,,4!ped-up! |]:[K:Eb][M:2/2] C, =B,,.C,.F, .F, | E,2 z C, =B,,.C,.A,.A, | G,2 z4 z2 | %399
 [A,C^F]8 | [G,DG]2 z G,, ^F,,.G,,.C,.C, | =B,,2 z G,, ^F,,.G,,.E,.E, | D,2 z .G,, .=B,,.D,.F,.A, | %403
[K:treble] .=B,.D.F.A .G.F.E.D | .C!p!.[EG].[EG].[EG] .C.[=EG_B].[EGB].[EGB] | %405
 C[FA][FA][FA] C[FA=B][FAB][FAB] | C[EG][EG][EG] C[=EG_B][EGB][EGB] | %407
 C[FA][FA][FA] C[FA=B][FAB][FAB] | [CEGc]2[K:bass] z ^F G2 z =B, | C2 z ^F, G,2 z =B,, | %410
 C,2 z ^F,, G,,2 [C,,C,]2 | [G,,,G,,]2 [C,,C,]2 [G,,,G,,]2 [C,,C,]2 | %412
!ff! !fermata![G,,,=B,,,D,,G,,]4 z4 | [E,,E,]4 .[A,,A,]2 .[G,,G,]2 | [F,,B,,F,]4 z4 | %415
 [E,,E,]4 .[A,,,A,,]2 .[=A,,,=A,,]2 | [B,,,B,,]4 z4 | [E,,E,]4 .[A,,A,]2 .[G,,G,]2 | %418
 !arpeggio![A,,C,E,A,]2 z2 z4 |!f! B,,8- | B,,8 |!f! B,,8- | B,,8 | %423
!mf! [A,,C,F,]2 z2 [B,,F,A,]2 z2 | %424
!ped! [E,G,]2 z E,!ped-up!"_cresc."!ped! D,.E,!ped-up!.[C,A,].[C,A,] | %425
!ped! [B,,G,]2 z E,!ped-up!!ped! D,.E,!ped-up!.[A,C].[A,C] | %426
!ped! [G,B,]E,/E/ E,/E/E,/E/!ped!!ped-up! E,2!ped-up! E2 | [D,F,A,B,D]8 | [E,G,B,E]2 z4 z2 | %429
 [A,,,A,,]2 z [A,,,A,,] [B,,,B,,]2 [B,,,B,,]2 | z[K:treble] A/B/ c/B/A/G/ (3FED (3CB,A, | %431
[K:bass] (3G,A,B, (3A,G,F, (3E,D,C, (3B,,A,,G,, | [A,,,A,,]2 z [A,,,A,,] [B,,,B,,]2 [B,,,B,,]2 | %433
 .[E,,G,,B,,E,]2[K:treble] .[=EG].[EG] .[FA]2 .[EG].[EG] | %434
 .[FA]2[K:bass] .[B,,,B,,]2 z2 .[=B,,,=B,,]2 | .[C,,C,]2 .[=A,,,=A,,]2 .[_B,,,_B,,]2 .[B,,,B,,]2 | %436
 .[E,,E,]2[K:treble] .[=EG].[EG] .[FA]2 .[EG].[EG] | %437
 [FA]2[K:bass] [B,,,B,,]2 z2!ff! [_C,,_E,,_G,,_C,]2- | %438
 [C,,E,,G,,C,]2 .[=A,,,=A,,]2 .[B,,,B,,]2 .[B,,,B,,]2 | (E,,.E,) z2 (E,,.E,) z2 | %440
 (E,,.E,) z2 (E,,.E,) z2 | .E,,2 z4 z2 | z2 z :|!p! B,,!<(! =A,,.B,,.[G,B,].[G,B,]!<)! | [G,B,]8 | %445
 [A,B,]2 z B,,!<(! =A,,.B,,.[_A,B,].[A,B,]!<)! | [A,B,]8 | [G,B,]2 z2 [F,B,_D]2 z2 | %448
 .[=E,G,B,C]2 z2 z4 | .[F,A,C]2 z2 .[_E,F,A,C]2 z2 | .[D,F,A,=B,]2 z2 .[C,D,F,A,]2 z2 | %451
 .[=B,,D,F,A,]2 z2[K:treble] z .a.a.a | =B4[K:bass] z .A,.A,.A, | %453
 z .A,,.A,,.A,, .=B,,,.A,,.A,,.A,, | !fermata!=B,,,3 C, =B,,.C,.F,.F, | E,2 z C, =B,,.C,.A,.A, | %456
 G,2 z2 z4 | [A,C^F]8 | [G,DG]2 z G,, ^F,,.G,,.C,.C, | =B,,2 z G,, ^F,,.G,,.E,.E, | %460
 D,2 z .G,, .=B,,.D,.F,.A, |[K:treble] .=B,.D.F.A .G.F.E.D | %462
 .C!p!.[EG].[EG].[EG] .C.[=EG_B].[EGB].[EGB] | C[FA][FA][FA] C[FA=B][FAB][FAB] | %464
 C[EG][EG][EG] .C.[=EG_B].[EGB].[EGB] | C[FA][FA][FA] C[FA=B][FAB][FAB] | %466
 [CEGc]2[K:bass] z ^F G2 z =B, | C2 z ^F, G,2 z =B,, | C,2 z ^F,, G,,2 [C,,C,]2 | %469
 [G,,,G,,]2 [C,,C,]2 [G,,,G,,]2 [C,,C,]2 |!ff! !fermata![G,,,=B,,,D,,G,,]4 z4 | %471
 [C,G,C]4 [F,G,=B,]2 [=E,G,C]2 | [D,G,D]4 z4 | [C,G,C]4 [F,=A,]2 [^F,A,]2 | [G,,G,]4 z4 | %475
 [C,G,C]4 .[F,G,=B,]2 .[=E,G,C]2 | [F,=A,CF]2 z2 z4 |!f! G,8- | G,8 |!f! G,8- | G,8 | %481
!mf! [F,,_A,,D,F,]2 z2 [G,,=B,,D,F,]2 z2 | .[C,E,].G,.G,.G, .G,.G,.=B,,.G, | %483
 .C,.G,.G,.G, .G,.G,.=B,,.G, | .C,.G,.G,.G, .G,.G,.[=B,,D,F,G,].[B,,D,F,G,] | [=B,,D,F,G,]8 | %486
 [C,E,G,]2 z2 z4 |!ped! !>!F,,2!ped-up! z .F,!ped! G,,2!ped-up! z .G, | %488
[K:treble]!ff!!ped! z F/G/ A/G/F/E/!ped-up![K:bass]!ped! (3DC=B, (3A,G,F,!ped-up! | %489
!ped! (3E,F,G, (3F,E,D,!ped-up!!ped! (3C,=B,,A,, (3G,,F,,E,,!ped-up! | %490
!ped! !>![F,,,F,,]2!ped-up! z !>![F,,,F,,]!ped! [G,,,G,,]2!ped-up! z [G,,,G,,] | %491
 [C,,E,,G,,C,]2[K:treble] .[C=E].[CE] .[DF]2 .[CE].[CE] | %492
 .[DF]2[K:bass] .[G,,,G,,]2 z2 .[G,,,G,,]2 | .[A,,,A,,]2 .[^F,,,^F,,]2 .[G,,,G,,]2 .[G,,,G,,]2 | %494
 .[C,,C,]2[K:treble] .[^C=E].[CE] .[DF]2 .[CE].[CE] | %495
 .[DF]2[K:bass] .[G,,,G,,]2 z2 [A,,,C,,E,,A,,]2- | %496
 [A,,,C,,E,,A,,]2 .[^F,,,^F,,]2 .[G,,,G,,]2 .[G,,,G,,]2 | (C,,.C,) z2 (C,,.C,) z2 | %498
 (C,,.C,) z2 (C,,.C,) z2 | (A,,,.A,,) z2 (A,,,.A,,) z2 | (A,,,.A,,) z2 (A,,,.A,,) z2 | %501
 [A,,,A,,]8- | [A,,,A,,]8- | !fermata![A,,,A,,]4 z4 | [_D,,_D,]4 .[_G,,C,]2 .[F,,D,]2 | %505
 [A,,E,]4- [A,,E,] z z2 | [_D,,_D,]4 .[_G,,,_G,,]2 .[=G,,,=G,,]2 | [A,,,A,,]4 z4 | %508
 [_D,,_D,]4 .[_G,,C,]2 .[F,,D,]2 | !fermata![A,,C,E,]8 | %510
!ped! x2 x2[I:staff -1] [F,-A,-C]4 [F,A,]4!ped-up! | %511
!ped![I:staff +1] (9:8:9G,,,/C,,/E,,/G,,/C,/E,/[I:staff -1] G,/C/E/!ped-up![I:staff +1] z4 z2 [G,,,G,,]2 | %512
 .C,,.C,.C,.C, .C,.[G,_B,].[G,B,].[G,B,] | %513
 .C,.[F,A,].[F,A,].[F,A,] .C,.[F,A,=B,].[F,A,B,].[F,A,B,] | %514
 C,[=E,G,C][E,G,C][E,G,C] C,[G,_B,][G,B,][G,B,] | %515
 C,[F,A,][F,A,][F,A,] C,[F,A,=B,][F,A,B,][F,A,B,] | %516
 C,[=E,G,C][E,G,C][E,G,C] C,[F,A,=B,][F,A,B,][F,A,B,] | %517
 C,[=E,G,C][E,G,C][E,G,C] C,[F,A,=B,][F,A,B,][F,A,B,] | %518
!ped! C,[=E,G,C][E,G,C][E,G,C]!ped-up!!ped! C,[E,G,C][E,G,C][E,G,C]!ped-up! | %519
 [C,=E,G,]2 !fermata!z2 |] %520
V:3
|: x6 | x6 | x4[K:treble] x2 | x6 |[K:bass] x6 | x6 | x4[K:treble] x2 | x6 | x4[K:bass] x2 | x6 | %10
 x4[K:treble] x2 | x6 |[K:bass] x6 | x6 | x6 | x6 | x6 | x6 | x6 | x6 | x6 | [C,,E,,G,,C,]3 z z2 | %22
 x6 | x6 | x6 | x6 | x6 | x6 | x6 | x6 | x6 | x6 | _D6 | x6 | x6 | x6 |[K:treble] B6 | A6 | G6 | %39
 F6 | _G6 | F6 | E6 | _D6 |[K:bass] x6 | x6 | x6 | B,,6- | B,,6 | B,,6- | B,,6 | B,,6- | B,,6 | %53
 B,,6- | B,,6 | x6 | x6 | x6 | x6 | x6 | x6 | x6 | x6 | x6 | x6 | x6 | x6 | x6 | x6 | x6 | x6 | %71
 x6 | x6 | x6 | x6 | x6 | x6 | x6 | x6 | x6 | x6 | x6 | x6 | x6 | x6 | x6 | x6 | x6 | x6 | x6 | %90
 x6 | x6 | x6 | E,,2 B,,2 =A,,2 | _A,,2 G,,2 F,,2 | x6 | x6 | E,,2 B,,2 =A,,2 | _A,,2 G,,2 F,,2 | %99
 x6 | x6 | x6 | x6 | x6 | x6 :| x6 | x6 |[K:treble] x6 | x6 | x6 | x6 | x6 | x6 | x6 | x6 | x6 | %116
 x6 |[K:bass] x6 | x6 | x6 | x6 | x6 | x6 | x6 | x6 | x6 | x6 | x6 | x6 | x6 | x6 | x6 | x6 | x6 | %134
 x6 | x6 |[K:treble] x6 | x6 | x6 |[K:bass] x6 | x6 | x6 | x6 | x6 | x6 | x6 | x6 | x6 | x6 | x6 | %150
 x6 | x6 | x6 | x6 | x6 | x6 | x6 | x6 | x6 | x6 | x6 | x6 | x6 | x6 | x6 | x6 | x6 | x6 | x6 | %169
[K:treble] x6 | x6 |[K:bass] x6 | x6 | x4[K:treble] x2 | x6 | x4[K:bass] x2 | x6 | %177
 x4[K:treble] x2 | x6 |[K:bass] x6 | x6 | x6 | x6 | x6 | x6 | x6 | x6 | x6 | x6 | x6 | x6 | _C6 | %192
 B,6 | x6 | x6 |[K:treble] _c6 | x6 | x6 | x6 | A6 | x6 | x6 | x6 | x6 | x6 | x6 |[K:bass] C,6- | %207
 C,6 | C,6- | C,6 | C,6- | C,6 | C,6- | C,6 | x6 | x6 | x6 | x6 | x6 | x6 | x6 | x6 | x6 | x6 | %224
 x6 | x6 | x6 | x6 | x6 | x6 | x6 | x6 | x6 | x6 | x6 | x6 | x6 | x6 | x6 | x6 | x6 | x6 | x6 | %243
 x6 | x6 | x6 | x6 | x6 | x6 | x6 | x6 | x6 | x6 | x6 | x6 | x6 | x6 | x6 | x6 | x6 | x6 | x6 | %262
 x6 | x6 | x6 | x6 | x6 | x6 | x6 | x6 | C,,2 G,,2!mp! ^F,,2 | =F,,2 E,,2 D,,2 | x6 | x6 | %274
 C,,2 G,,2!mp! ^F,,2 | =F,,2 E,,2 D,,2 | x6 | x6 | x6 | x6 | x6 | x6 | x6 | x6 |][K:Ab][M:2/4] x4 | %285
 x4 | G,2 A,2 | x4 | x4 | x4 | x4 | E,2 E, x | x4 | x4 | x4 | x4 | x4 | x/ D,3/2- D,2 | E,2 E,2 | %299
 A,,3 x | x4 | x4 | x4 | x4 | x4 | x4 | x4 | x4 | x4 | [=D,A,B,][D,A,B,][D,A,B,][D,B,] | x4 | x4 | %312
 x4 | x4 | x4 | x4 | x4 | x4 | x4 | x4 | x4 |[K:treble] x4 | x (3:2:1_G3/2- x2 |[K:bass] x4 | x4 | %325
 x4 | x4 | x2 x2 | x4 | A,,2 G,,2 | x4 | G,2 A,2 | [E,E]4 | x4 | x7/4 F,/4- F,2- | x4 | E,2 E, x | %337
 A,,/E,/E,/E,/ G,,/E,/E,/E,/ | x4 | G,/E,/E,/E,/ A,/E,/E,/E,/ | x4 | x4 | (3:2:2x/ D,- D,3 | %343
 E,2 E,2 | x4 | x4 | x4 | x4 | x4 | x4 | x4 | x4 | x4 | x4 | x4 | x4 | [G,DE][G,DE][G,DE][G,E] | %357
 x4 | x4 | x4 | x4 | x4 |[K:treble] x4 | x4 | x4 |[K:bass] x4 | x4 | x4 | x4 | x (3:2:1_C3/2- x2 | %370
 x[K:treble] x3 | x4 |[K:bass] x4 | x4 | A,E,G,E, | A,E,C,A,, | G,,E,,A,,C, | E,F,E,D, | C,2 B,,2 | %379
 A,,2 D,2 | E,2 E,2 | _A,,2!mp! [B,,E,]!mp![=B,,E,] | [C,E,]2 [_B,,E,]2 | A,,2 D,2 | E,2 E,2 | x4 | %386
 x4 | x4 | x4 | x4 | x4 | A,,,A,,E,,C,, | A,,, A,,E,,C,, | A,,, A,,E,,C,, | x4 | x4 |]: %396
[K:Eb][M:2/2] x5 | x8 | x8 | x8 | x8 | x8 | x8 |[K:treble] x8 | x8 | x8 | x8 | x8 | x2[K:bass] x6 | %409
 x8 | x8 | x8 | x8 | x8 | x8 | x8 | x8 | x8 | x8 | z4 z!p! .B,,,.C,,.D,, | %420
 .E,,.F,, .G,,2 .F,,2 .E,,2 | z4 z!p! .B,,,.C,,.D,, | .E,,.F,, .G,,2 .F,,2 .E,,2 | x8 | x8 | x8 | %426
 x8 | x8 | x8 | x8 | x[K:treble] x7 |[K:bass] x8 | x8 | x2[K:treble] x6 | x2[K:bass] x6 | x8 | %436
 x2[K:treble] x6 | x2[K:bass] x6 | x8 | x8 | x8 | x8 | x3 :| x5 | x8 | x8 | x8 | x8 | x8 | x8 | %450
 x8 | x4[K:treble] x4 | x4[K:bass] x4 | x8 | x8 | x8 | x8 | x8 | x8 | x8 | x8 |[K:treble] x8 | x8 | %463
 x8 | x8 | x8 | x2[K:bass] x6 | x8 | x8 | x8 | x8 | x8 | x8 | x8 | x8 | x8 | x8 | %477
 z4 z!p! G,,=A,,=B,, | .C,.D, .=E,2 .D,2 .C,2 | z4 z!p! G,,=A,,=B,, | .C,.D, ._E,2 .D,2 .C,2 | x8 | %482
 x8 | x8 | x8 | x8 | x8 | x8 |[K:treble] x4[K:bass] x4 | x8 | x8 | x2[K:treble] x6 | %492
 x2[K:bass] x6 | x8 | x2[K:treble] x6 | x2[K:bass] x6 | x8 | x8 | x8 | x8 | x8 | x8 | x8 | x8 | %504
 x8 | x8 | x8 | x8 | x8 | x8 | %510
 (5:4:5=A,,,/C,,/E,,/^F,,/=A,,/-(5:4:5C,/-E,/-[I:staff -1] ^F,/-=A,/-C/-[I:staff +1] [A,,C,E,]8 | %511
 x12 | x8 | x8 | x8 | x8 | x8 | x8 | x8 | x4 |] %520
V:4
|: x6 | x6 | x6 | x6 | x6 | x6 | x6 | x6 | x6 | x6 | x6 | x6 | x6 | x6 | x6 | x6 | x6 | x6 | x6 | %19
 x6 | x6 | x6 | x6 | x6 | x6 | x6 | x6 | x6 | x6 | x6 | x6 | x6 | x2 G4 | A6 | G6 | A6 | x2 =e4 | %37
 f6 | =e6 | c6 | x2 c4 | _d6 | c6 | A6 | =A6 | F6 | _G4 E2 | D2 x2 x2 | x6 | x6 | x6 | x6 | x6 | %53
 x6 | x6 | x6 | x6 | x6 | x6 | x6 | x6 | x6 | x6 | x6 | x6 | x6 | x6 | x6 | x6 | x6 | x6 | x6 | %72
 x6 | x6 | x6 | x6 | x6 | x6 | x6 | x6 | x6 | x6 | x6 | x6 | x6 | x6 | x6 | x6 | x6 | x6 | x6 | %91
[K:bass] x6 | x6 | x6 | x2[K:treble] [DFA]2 [DFA]2 | [EG]4 x2 | x2 [FA]2 [FA]2 | [GB]4 x2 | %98
 x2 [DFA]2 [DFA]2 | [EG]4 x2 | x2[K:bass] [F,A,]2 [F,A,]2 | [G,B,]4 x2 | x6 | x6 | x6 :| %105
[K:treble] x6 | x6 | x6 | x6 | x6 | x6 | x4 .d2 | d4 ._d2 | _d3 x x2 | x6 | x6 | x6 | x6 | x6 | %119
 x6 | x6 | x6 | x6 | x6 | x6 | x6 | x6 | x6 | x6 | x6 | x6 | x6 | x6 | x6 | x6 | x6 | x6 | x6 | %138
 x6 | x6 | x6 | x6 | x6 | x6 | x6 | x6 | x6 | x6 | x6 | x6 | x6 | x6 | x6 | x6 | x6 | x6 | A4 x2 | %157
 x6 | x6 | x6 | x6 | x6 | x6 | x6 | x6 | x4[K:bass] x2 | x6 | x7/2[K:treble] x5/2 | x6 | x6 | x6 | %171
 x6 | x6 | x6 | x6 | x6 | x6 | x6 | x6 | x6 | x6 | x6 | x6 | x6 | x6 | x6 | x6 | x6 | x6 | x6 | %190
 x6 | x2 F4 | _G6 | F6 | x6 | x2 f4 | _g6 | f6 | _g6 | x2 d4 | e6 | d6 | B6 | =B6 | c6 | A4 F2 | %206
 =E2 x2 x2 | x6 | x6 | x6 | x6 | x6 | x6 | x6 | x6 | x6 | x6 | x6 | x6 | x6 | x6 | x6 | x6 | x6 | %224
 x6 | x6 | x6 | x6 | x6 | x6 | x6 | x6 | x6 | x6 | x6 | x6 | x6 | x6 | x6 | x6 | x6 | x6 | x6 | %243
 x6 | x6 | x6 | x6 | x4[K:bass] x2 | x6 | x6 | x6 | x6 | x6 |[K:treble] x6 | x4[K:bass] x2 | x6 | %256
 x6 | x6 | x6 | x6 | x6 | x6 | x2[K:treble] x4 | x6 | x6 | x6 | x6 | x6 |[K:bass] x6 | x6 | x6 | %271
 x2[K:treble] x4 | [CE]4 x2 | x6 | [EG]4 x2 | x6 | [CE]4 x2 |[K:bass] x6 | [E,G,]4 x2 | x6 | x6 | %281
[K:treble] x6 | x6 | x6 |][K:Ab][M:2/4] C2 D2 | C3 z | E2 E_A | G3 z | E2 [EA]2 | [FA]2 x2 | %290
 [Ad]2 x2 | EEE z | C2 D2 | C2 x2 | x2 _A2 | G2 x2 | x4 | x4 | _A2 G2 | DC/4D/4E/4D/4 C x | x4 | %301
 x4 | x4 | x4 | x4 | [F,A,]3 z | x4 | x4 | x4 | x4 | x4 | x4 | x4 | x4 | x4 | x4 | x4 | x4 | x4 | %319
 x4 | x4 | x4 | x4 | x4 | e2 =d2 | G z z2 | E2 =D2 | E x x2 | x4 | C2 D2 | C2 x2 | E2 E_A | x4 | %333
 x4 | x4 | A2 EE | EE E z | C2 D2 | C2 x2 | E2 [E_A]2 | x4 | x4 | x4 | _A2 G2 | %344
 D- D/4C/8D/8E/8D/8C/8D/8 C x | x4 | x4 | x4 | x4 | x15/4[K:bass] x/4 | [_G,__B,]3 x3/4 [=F,A,]/4 | %351
 [F,A,]3 x3/4 [F,A,]/4 | [F,A,]2 [G,B,]/[K:treble] x/ x | x4 | x4 | x4 | x4 | x4 | x4 | x4 | x4 | %361
 x4 | x4 | x4 | x4 | x4 | x4 | x4 | x4 | x4 | x4 | a2 g2 | x4 | A2 G2 | x4 | x4 | x4 | x4 | x4 | %379
 x4 | x4 | x4 | x4 | x4 | A=ABG | [CE]/!pp!.E.E.E.E/- | E/!pp!EE!pp!EE/- | E/!pp!EEEE/- | %388
 E/!pp!EE!pp!EE/ | x3[K:bass]!p! [A,C] | [B,D]2!p! [B,D]2 | x4 | x4 | x4 | x4 | x4 |]: %396
[K:Eb][M:2/2][K:treble] x5 | x8 | x8 | x8 | x8 | x8 | x8 | x8 | x8 | x8 | x8 | x8 | x8 | x8 | x8 | %411
 x8 | x8 | [G,B,]4 x4 | x5[K:bass] x3 | [G,B,]4 x4 | x5[K:treble] x3 | [G,B,]4 x4 | x8 | %419
 z4 [F,A,]4 | x8 | z4 [F,A,]4 | x8 | x8 | x8 | x8 | x8 | x8 | x8 | x8 | x8 | x8 | x8 | x8 | x8 | %435
 x8 | x8 | x8 | x8 | x8 | x8 | x8 | x3 :| x5 | x8 | x8 | x8 | x8 | x8 | x8 | x8 | x8 | x8 | %453
[K:bass] x8 | x3[K:treble] x5 | x8 | x8 | x8 | x8 | x8 | x8 | x8 | x8 | x8 | x8 | x8 | x8 | x8 | %468
 x8 | x8 | x8 | [=EG]4 [DG]2 [EG]2 | [FG=B]4 x4 | [=EG]4 [D=A]2 [EA]2 | x8 | [=EG]4 [DG]2 [EG]2 | %476
 x8 | z4 [DF]4 | [C=E]4 z4 | z4 [DF]4 | [C_E]4 x4 | x8 | x8 | x8 | x8 | x8 | x8 | x8 | x8 | x8 | %490
 x8 | x8 | x2[K:bass] x6 | x8 | x2[K:treble] x6 | x2[K:bass] x6 | x8 | x2[K:treble] x6 | x8 | x8 | %500
 x8 | x8 | e4 c4- | c4 x4[K:bass] | [F,A,]4 x4 | x8 | [F,A,]4 x4 | x8 | [F,A,]4 x4 | %509
 [_G,-A,-C]4 [G,A,]4 | x12 | x12 | x5[K:treble] x3 | x8 | x8 | x8 | x8 | x8 | x3[K:bass] x5 | x4 |] %520
V:5
|: x6 | x6 | x4[K:treble] x2 | x6 |[K:bass] x6 | x6 | x4[K:treble] x2 | x6 | x4[K:bass] x2 | x6 | %10
 x4[K:treble] x2 | x6 |[K:bass] x6 | x6 | x6 | x6 | x6 | x6 | x6 | x6 | x6 | x6 | x6 | x6 | x6 | %25
 x6 | x6 | x6 | x6 | x6 | x6 | x6 | x6 | x6 | x6 | x6 |[K:treble] x6 | x6 | x6 | x6 | x6 | x6 | %42
 x6 | x6 |[K:bass] x6 | x6 | x6 | x6 | x6 | x6 | x6 | x6 | x6 | x6 | x6 | x6 | x6 | x6 | x6 | x6 | %60
 x6 | x6 | x6 | x6 | x6 | x6 | x6 | x6 | x6 | x6 | x6 | x6 | x6 | x6 | x6 | x6 | x6 | x6 | x6 | %79
 x6 | x6 | x6 | x6 | x6 | x6 | x6 | x6 | x6 | x6 | x6 | x6 | x6 | x6 | x6 | x6 | x6 | x6 | x6 | %98
 x6 | x6 | x6 | x6 | x6 | x6 | x6 :| x6 | x6 |[K:treble] x6 | x6 | x6 | x6 | x6 | x6 | x6 | x6 | %115
 x6 | x6 |[K:bass] x6 | x6 | x6 | x6 | x6 | x6 | x6 | x6 | x6 | x6 | x6 | x6 | x6 | x6 | x6 | x6 | %133
 x6 | x6 | x6 |[K:treble] x6 | x6 | x6 |[K:bass] x6 | x6 | x6 | x6 | x6 | x6 | x6 | x6 | x6 | x6 | %149
 x6 | x6 | x6 | x6 | x6 | x6 | x6 | x6 | x6 | x6 | x6 | x6 | x6 | x6 | x6 | x6 | x6 | x6 | x6 | %168
 x6 |[K:treble] x6 | x6 |[K:bass] x6 | x6 | x4[K:treble] x2 | x6 | x4[K:bass] x2 | x6 | %177
 x4[K:treble] x2 | x6 |[K:bass] x6 | x6 | x6 | x6 | x6 | x6 | x6 | x6 | x6 | x6 | x6 | x6 | x6 | %192
 x6 | x6 | x6 |[K:treble] x6 | x6 | x6 | x6 | x6 | x6 | x6 | x6 | x6 | x6 | x6 |[K:bass] x6 | x6 | %208
 x6 | x6 | x6 | x6 | x6 | x6 | x6 | x6 | x6 | x6 | x6 | x6 | x6 | x6 | x6 | x6 | x6 | x6 | x6 | %227
 x6 | x6 | x6 | x6 | x6 | x6 | x6 | x6 | x6 | x6 | x6 | x6 | x6 | x6 | x6 | x6 | x6 | x6 | x6 | %246
 x6 | x6 | x6 | x6 | x6 | x6 | x6 | x6 | x6 | x6 | x6 | x6 | x6 | x6 | x6 | x6 | x6 | x6 | x6 | %265
 x6 | x6 | x6 | x6 | x6 | x6 | x6 | x6 | x6 | x6 | x6 | x6 | x6 | x6 | x6 | x6 | x6 | x6 | x6 |] %284
[K:Ab][M:2/4] x4 | x4 | x4 | x4 | x4 | x4 | x4 | x4 | x4 | x4 | x4 | x4 | x4 | x4 | x4 | x4 | x4 | %301
 x4 | x4 | x4 | x4 | x4 | x4 | x4 | x4 | x4 | x4 | x4 | x4 | x4 | x4 | x4 | x4 | x4 | x4 | x4 | %320
 x4 |[K:treble] x4 | x (3:2:2z/ E- x2 |[K:bass] x4 | x4 | x4 | x4 | x4 | x4 | x4 | x4 | x4 | x4 | %333
 x4 | x4 | x4 | x4 | x4 | x4 | x4 | x4 | x4 | x4 | x4 | x4 | x4 | x4 | x4 | x4 | x4 | x4 | x4 | %352
 x4 | x4 | x4 | x4 | x4 | x4 | x4 | x4 | x4 | x4 |[K:treble] x4 | x4 | x4 |[K:bass] x4 | x4 | x4 | %368
 x4 | x (3:2:2z/ A,- x2 | x[K:treble] x3 | x4 |[K:bass] x4 | x4 | x4 | x4 | x4 | z2 E,2- | %378
 E,!mp! !>!A,2!mp! G,- | G,!mp! A,2!mp! B,/D/ | z!mp! C2!mp! G,- | [E,G,]!mp!_A,B,=B, | %382
 C/A,!mp!A,!mp!G,G,/- | G,/!mp!A,A,/- A,/!mp!=A,/B,/D/- | DCD[B,D] | x4 | x4 | x4 | x4 | x4 | x4 | %391
 x4 | x4 | x4 | x4 | x4 |]:[K:Eb][M:2/2] x5 | x8 | x8 | x8 | x8 | x8 | x8 |[K:treble] x8 | x8 | %405
 x8 | x8 | x8 | x2[K:bass] x6 | x8 | x8 | x8 | x8 | x8 | x8 | x8 | x8 | x8 | x8 | x8 | x8 | x8 | %422
 x8 | x8 | x8 | x8 | x8 | x8 | x8 | x8 | x[K:treble] x7 |[K:bass] x8 | x8 | x2[K:treble] x6 | %434
 x2[K:bass] x6 | x8 | x2[K:treble] x6 | x2[K:bass] x6 | x8 | x8 | x8 | x8 | x3 :| x5 | x8 | x8 | %446
 x8 | x8 | x8 | x8 | x8 | x4[K:treble] x4 | x4[K:bass] x4 | x8 | x8 | x8 | x8 | x8 | x8 | x8 | x8 | %461
[K:treble] x8 | x8 | x8 | x8 | x8 | x2[K:bass] x6 | x8 | x8 | x8 | x8 | x8 | x8 | x8 | x8 | x8 | %476
 x8 | x8 | x8 | x8 | x8 | x8 | x8 | x8 | x8 | x8 | x8 | x8 |[K:treble] x4[K:bass] x4 | x8 | x8 | %491
 x2[K:treble] x6 | x2[K:bass] x6 | x8 | x2[K:treble] x6 | x2[K:bass] x6 | x8 | x8 | x8 | x8 | x8 | %501
 x8 | x8 | x8 | x8 | x8 | x8 | x8 | x8 | x8 | x12 | x12 | x8 | x8 | x8 | x8 | x8 | x8 | x8 | x4 |] %520
V:6
|: x6 | x6 | x4[K:treble] x2 | x6 |[K:bass] x6 | x6 | x4[K:treble] x2 | x6 | x4[K:bass] x2 | x6 | %10
 x4[K:treble] x2 | x6 |[K:bass] x6 | x6 | x6 | x6 | x6 | x6 | x6 | x6 | x6 | x6 | x6 | x6 | x6 | %25
 x6 | x6 | x6 | x6 | x6 | x6 | x6 | x6 | x6 | x6 | x6 |[K:treble] x6 | x6 | x6 | x6 | x6 | x6 | %42
 x6 | x6 |[K:bass] x6 | x6 | x6 | x6 | x6 | x6 | x6 | x6 | x6 | x6 | x6 | x6 | x6 | x6 | x6 | x6 | %60
 x6 | x6 | x6 | x6 | x6 | x6 | x6 | x6 | x6 | x6 | x6 | x6 | x6 | x6 | x6 | x6 | x6 | x6 | x6 | %79
 x6 | x6 | x6 | x6 | x6 | x6 | x6 | x6 | x6 | x6 | x6 | x6 | x6 | x6 | x6 | x6 | x6 | x6 | x6 | %98
 x6 | x6 | x6 | x6 | x6 | x6 | x6 :| x6 | x6 |[K:treble] x6 | x6 | x6 | x6 | x6 | x6 | x6 | x6 | %115
 x6 | x6 |[K:bass] x6 | x6 | x6 | x6 | x6 | x6 | x6 | x6 | x6 | x6 | x6 | x6 | x6 | x6 | x6 | x6 | %133
 x6 | x6 | x6 |[K:treble] x6 | x6 | x6 |[K:bass] x6 | x6 | x6 | x6 | x6 | x6 | x6 | x6 | x6 | x6 | %149
 x6 | x6 | x6 | x6 | x6 | x6 | x6 | x6 | x6 | x6 | x6 | x6 | x6 | x6 | x6 | x6 | x6 | x6 | x6 | %168
 x6 |[K:treble] x6 | x6 |[K:bass] x6 | x6 | x4[K:treble] x2 | x6 | x4[K:bass] x2 | x6 | %177
 x4[K:treble] x2 | x6 |[K:bass] x6 | x6 | x6 | x6 | x6 | x6 | x6 | x6 | x6 | x6 | x6 | x6 | x6 | %192
 x6 | x6 | x6 |[K:treble] x6 | x6 | x6 | x6 | x6 | x6 | x6 | x6 | x6 | x6 | x6 |[K:bass] x6 | x6 | %208
 x6 | x6 | x6 | x6 | x6 | x6 | x6 | x6 | x6 | x6 | x6 | x6 | x6 | x6 | x6 | x6 | x6 | x6 | x6 | %227
 x6 | x6 | x6 | x6 | x6 | x6 | x6 | x6 | x6 | x6 | x6 | x6 | x6 | x6 | x6 | x6 | x6 | x6 | x6 | %246
 x6 | x6 | x6 | x6 | x6 | x6 | x6 | x6 | x6 | x6 | x6 | x6 | x6 | x6 | x6 | x6 | x6 | x6 | x6 | %265
 x6 | x6 | x6 | x6 | x6 | x6 | x6 | x6 | x6 | x6 | x6 | x6 | x6 | x6 | x6 | x6 | x6 | x6 | x6 |] %284
[K:Ab][M:2/4] x4 | x4 | x4 | x4 | x4 | x4 | x4 | x4 | x4 | x4 | x4 | x4 | x4 | x4 | x4 | x4 | x4 | %301
 x4 | x4 | x4 | x4 | x4 | x4 | x4 | x4 | x4 | x4 | x4 | x4 | x4 | x4 | x4 | x4 | x4 | x4 | x4 | %320
 x4 |[K:treble] x4 | x (3z/ z/ _C/- x2 |[K:bass] x4 | x4 | x4 | x4 | x4 | x4 | x4 | x4 | x4 | x4 | %333
 x4 | x4 | x4 | x4 | x4 | x4 | x4 | x4 | x4 | x4 | x4 | x4 | x4 | x4 | x4 | x4 | x4 | x4 | x4 | %352
 x4 | x4 | x4 | x4 | x4 | x4 | x4 | x4 | x4 | x4 |[K:treble] x4 | x4 | x4 |[K:bass] x4 | x4 | x4 | %368
 x4 | x (3z/ z/ _F,/- x2 | x[K:treble] x3 | x4 |[K:bass] x4 | x4 | x4 | x4 | x4 | x4 | x4 | x4 | %380
 x4 | x4 | x4 | x4 | x4 | x4 | x4 | x4 | x4 | x4 | x4 | x4 | x4 | x4 | x4 | x4 |]: %396
[K:Eb][M:2/2] x5 | x8 | x8 | x8 | x8 | x8 | x8 |[K:treble] x8 | x8 | x8 | x8 | x8 | x2[K:bass] x6 | %409
 x8 | x8 | x8 | x8 | x8 | x8 | x8 | x8 | x8 | x8 | x8 | x8 | x8 | x8 | x8 | x8 | x8 | x8 | x8 | %428
 x8 | x8 | x[K:treble] x7 |[K:bass] x8 | x8 | x2[K:treble] x6 | x2[K:bass] x6 | x8 | %436
 x2[K:treble] x6 | x2[K:bass] x6 | x8 | x8 | x8 | x8 | x3 :| x5 | x8 | x8 | x8 | x8 | x8 | x8 | %450
 x8 | x4[K:treble] x4 | x4[K:bass] x4 | x8 | x8 | x8 | x8 | x8 | x8 | x8 | x8 |[K:treble] x8 | x8 | %463
 x8 | x8 | x8 | x2[K:bass] x6 | x8 | x8 | x8 | x8 | x8 | x8 | x8 | x8 | x8 | x8 | x8 | x8 | x8 | %480
 x8 | x8 | x8 | x8 | x8 | x8 | x8 | x8 |[K:treble] x4[K:bass] x4 | x8 | x8 | x2[K:treble] x6 | %492
 x2[K:bass] x6 | x8 | x2[K:treble] x6 | x2[K:bass] x6 | x8 | x8 | x8 | x8 | x8 | x8 | x8 | x8 | %504
 x8 | x8 | x8 | x8 | x8 | x8 | x12 | x12 | x8 | x8 | x8 | x8 | x8 | x8 | x8 | x4 |] %520
V:7
|: x6 | x6 | x6 | x6 | x6 | x6 | x6 | x6 | x6 | x6 | x6 | x6 | x6 | x6 | x6 | x6 | x6 | x6 | x6 | %19
 x6 | x6 | x6 | x6 | x6 | x6 | x6 | x6 | x6 | x6 | x6 | x6 | x6 | x6 | x6 | x6 | x6 | x6 | x6 | %38
 x6 | x6 | x6 | x6 | x6 | x6 | x6 | x6 | x6 | x6 | x6 | x6 | x6 | x6 | x6 | x6 | x6 | x6 | x6 | %57
 x6 | x6 | x6 | x6 | x6 | x6 | x6 | x6 | x6 | x6 | x6 | x6 | x6 | x6 | x6 | x6 | x6 | x6 | x6 | %76
 x6 | x6 | x6 | x6 | x6 | x6 | x6 | x6 | x6 | x6 | x6 | x6 | x6 | x6 | x6 |[K:bass] x6 | x6 | x6 | %94
 x2[K:treble] x4 | x6 | x6 | x6 | x6 | x6 | x2[K:bass] x4 | x6 | x6 | x6 | x6 :|[K:treble] x6 | %106
 x6 | x6 | x6 | x6 | x6 | x6 | x6 | x6 | x6 | x6 | x6 | x6 | x6 | x6 | x6 | x6 | x6 | x6 | x6 | %125
 x6 | x6 | x6 | x6 | x6 | x6 | x6 | x6 | x6 | x6 | x6 | x6 | x6 | x6 | x6 | x6 | x6 | x6 | x6 | %144
 x6 | x6 | x6 | x6 | x6 | x6 | x6 | x6 | x6 | x6 | x6 | x6 | x6 | x6 | x6 | x6 | x6 | x6 | x6 | %163
 x6 | x6 | x4[K:bass] x2 | x6 | x7/2[K:treble] x5/2 | x6 | x6 | x6 | x6 | x6 | x6 | x6 | x6 | x6 | %177
 x6 | x6 | x6 | x6 | x6 | x6 | x6 | x6 | x6 | x6 | x6 | x6 | x6 | x6 | x6 | x6 | x6 | x6 | x6 | %196
 x6 | x6 | x6 | x6 | x6 | x6 | x6 | x6 | x6 | x6 | x6 | x6 | x6 | x6 | x6 | x6 | x6 | x6 | x6 | %215
 x6 | x6 | x6 | x6 | x6 | x6 | x6 | x6 | x6 | x6 | x6 | x6 | x6 | x6 | x6 | x6 | x6 | x6 | x6 | %234
 x6 | x6 | x6 | x6 | x6 | x6 | x6 | x6 | x6 | x6 | x6 | x6 | x6 | x4[K:bass] x2 | x6 | x6 | x6 | %251
 x6 | x6 |[K:treble] x6 | x4[K:bass] x2 | x6 | x6 | x6 | x6 | x6 | x6 | x6 | x2[K:treble] x4 | x6 | %264
 x6 | x6 | x6 | x6 |[K:bass] x6 | x6 | x6 | x2[K:treble] x4 | x6 | x6 | x6 | x6 | x6 |[K:bass] x6 | %278
 x6 | x6 | x6 |[K:treble] x6 | x6 | x6 |][K:Ab][M:2/4] x4 | x4 | x4 | x4 | x4 | x4 | x4 | x4 | x4 | %293
 x4 | x4 | x4 | x4 | x4 | x4 | x4 | x4 | x4 | x4 | x4 | x4 | x4 | x4 | x4 | x4 | x4 | x4 | x4 | %312
 x4 | x4 | x4 | x4 | x4 | x4 | x4 | x4 | x4 | x4 | x4 | x4 | x4 | x4 | x4 | x4 | x4 | x4 | x4 | %331
 x4 | x4 | x4 | x4 | x4 | x4 | x4 | x4 | x4 | x4 | x4 | x4 | x4 | x4 | x4 | x4 | x4 | x4 | %349
 x15/4[K:bass] x/4 | x4 | x4 | x5/2[K:treble] x3/2 | x4 | x4 | x4 | x4 | x4 | x4 | x4 | x4 | x4 | %362
 x4 | x4 | x4 | x4 | x4 | x4 | x4 | x4 | x4 | x4 | x4 | x4 | x4 | x4 | x4 | x4 | x4 | x4 | x4 | %381
 x4 | x4 | x4 | E3 E | x4 | x4 | x4 | x4 | x/[K:bass] x7/2 | x4 | x4 | x4 | x4 | x4 | x4 |]: %396
[K:Eb][M:2/2][K:treble] x5 | x8 | x8 | x8 | x8 | x8 | x8 | x8 | x8 | x8 | x8 | x8 | x8 | x8 | x8 | %411
 x8 | x8 | x8 | x5[K:bass] x3 | x8 | x5[K:treble] x3 | x8 | x8 | x8 | x8 | x8 | x8 | x8 | x8 | x8 | %426
 x8 | x8 | x8 | x8 | x8 | x8 | x8 | x8 | x8 | x8 | x8 | x8 | x8 | x8 | x8 | x8 | x3 :| x5 | x8 | %445
 x8 | x8 | x8 | x8 | x8 | x8 | x8 | x8 |[K:bass] x8 | x3[K:treble] x5 | x8 | x8 | x8 | x8 | x8 | %460
 x8 | x8 | x8 | x8 | x8 | x8 | x8 | x8 | x8 | x8 | x8 | x8 | x8 | x8 | x8 | x8 | x8 | x8 | x8 | %479
 x8 | x8 | x8 | x8 | x8 | x8 | x8 | x8 | x8 | x8 | x8 | x8 | x8 | x2[K:bass] x6 | x8 | %494
 x2[K:treble] x6 | x2[K:bass] x6 | x8 | x2[K:treble] x6 | x8 | x8 | x8 | x8 | x8 | x5[K:bass] x3 | %504
 x8 | x8 | x8 | x8 | x8 | x8 | x12 | x12 | x5[K:treble] x3 | x8 | x8 | x8 | x8 | x8 | %518
 x3[K:bass] x5 | x4 |] %520

